X: 8500
T: Creatures Of The Night
R: slip jig
M: 9/8
K: Dmajor
g|:f2d dcd BcB|AFD FDF GEG|AFA B2g fed|cBA ABc d2g:|
M:6/8
|:f2d d^cd|fef agf|e2=c =cB=c|ede gfe|f2g agf|
e2f gfe|fed cBA|1 ABc d2g:|2 ABc d2e|faf ege|dfd BcB||

